!!!!SEGMENT: pl-wnifc--13846--130_anonim--130-simden-molotyla.krn
!!!kernsource:
!!!cenid: 18xx:3352
!!!COM: Anonim
!!!COM-rismid: pe30004985
!!!CDT:
!!!CNT:
!!!GTL: Pieśni polskie i ruskie ludu galicyjskiego
!!!OTL: 130. Simdeń mołotyła
!!!PDT: 1833
!!!AGN:
!!!SMS-siglum: PL-Wnifc
!!!SMS-shelfmark: 13846
!!!SMS-shelfwork: 130 G
!!!NIFC-rismid: 1001039637
!!!URL-scan: http://repozytorium.nifc.pl/skany/pl-wnifc-nut--13846
!!!ONB-nifc:
!!!OMD: Allegretto
!!!key: D
**kern	**kern	**dynam	**kern	**text
*part2	*part2	*part2	*part1	*part1
*staff3	*staff2	*	*staff1	*staff1
*I"FORTEPIAN.	*I"FORTEPIAN.	*	*I"GŁOS.	*
*Ipiano	*Ipiano	*	*Ivox	*
*ICklav	*ICklav	*	*ICvox	*
*IGacmp	*IGacmp	*	*IGsolo	*
*clefF4	*clefG2	*	*clefG2	*
*k[f#c#]	*k[f#c#]	*	*k[f#c#]	*
*D:	*D:	*	*D:	*
*M2/4	*M2/4	*	*M2/4	*
=1	=1	=1	=1	=1
!	!	!LO:DY:rj	!	!
8A\L 8F#\ 8D\|	(>8.ff#\L 8.a\	sf	(>8.ff#\L	Sim
8A\ 8AA\|	.	.	.	.
.	16ee\Jk 16a\)	.	16ee\Jk)	.
!	!	!LO:DY:rj	!	!
8A\ 8F#\ 8D\|	(>8.ff#\L 8.a\|	sf	(>8.ff#\L	-deń
8A\J 8AA\|	.	.	.	.
.	16ee\Jk 16a\|)	.	16ee\Jk)	.
=2	=2	=2	=2	=2
8A\L 8F#\ 8D\|	8ff#\L 8a\	.	8ff#\	mo-
8A\ 8AA\|	8ff#\J 8a\	.	8ff#\	-ło-
8A\ 8F#\ 8D\|	8dd\L 8a\	.	8dd\	-ty-
8A\J 8AA\|	8dd\J 8a\	.	8dd\	-ła,
!!LO:LB:g=original
=3	=3	=3	=3	=3
!	!	!LO:DY:rj	!	!
8A\L 8E\ 8C#\|	(>8.gg\L 8.a\	sf	(>8.gg\L	czech,
8A\ 8AA\|	.	.	.	.
.	16ff#\Jk 16a\)	.	16ff#\Jk)	.
!	!	!LO:DY:rj	!	!
8A\ 8E\ 8C#\|	(>8.gg\L 8.a\	sf	(>8.gg\L	czech,
8A\J 8AA\|	.	.	.	.
.	16ff#\Jk 16a\)	.	16ff#\Jk)	.
=4	=4	=4	=4	=4
8A\L 8E\ 8C#\	8gg\L 8a\	.	8gg\	za-
8A\ 8AA\	8gg\ 8a\	.	8gg\	-ro-
8A\ 8E\ 8C#\	8ee\ 8a\	.	8ee\	-by-
8A\J 8AA\	8ee\J 8a\	.	8ee\	-ła,
=5	=5	=5	=5	=5
8A\L 8F#\ 8D\	8ff#\L 8a\	.	8ff#\	sa-
8A\ 8AA\	8ff#\ 8a\	.	8ff#\	-mam
8A\ 8F#\ 8D\	8ff#\ 8a\	.	8ff#\	so-
8A\J 8AA\	8ff#\J 8a\	.	8ff#\	-bi
!!LO:LB:g=original
=6	=6	=6	=6	=6
8A\L 8F#\ 8D\	(>16ff#\LL 16a\	.	(>16ff#\LL	dy-
.	16gg\JJ 16a\)	.	16gg\JJ)	.
8AA\	(>16ff#\LL 16a\	.	(>16ff#\LL	-wo-
.	16ee\JJ 16a\)	.	16ee\JJ)	.
8A\ 8F#\ 8D\	8dd\L 8a\	.	8dd\	-wa-
8AA\J	8dd\J 8a\	.	8dd\	-ła,
=7	=7	=7	=7	=7
!LO:TX:t=P:problem:mixed beam	!	!	!	!
8AA/L	8ee\L 8a\ 8g\	.	8ee\	szom
8e\ 8c#\ 8A\	8ee\ 8a\ 8g\	.	8ee\	z la-
8e\ 8c#\ 8A\	8a\ 8g\	.	8a/	-szoń-
8e\J 8c#\ 8A\	8cc#/J 8a/ 8g/	.	8cc#\	-kom
!!LO:LB:g=original
=8	=8	=8	=8	=8
8D\L	8dd\L 8a\ 8f#\	.	8dd\	pro-
8d\ 8A\ 8F#\ 8D\	8dd\ 8a\ 8f#\	.	8dd\	-hu-
8d\ 8A\ 8F#\ 8D\	8dd\ 8a\ 8f#\	.	8dd\	-la-
8d\J 8A\ 8F#\ 8D\	8ff#\J 8a\ 8f#\	.	8ff#\	-ła
=9	=9	=9	=9	=9
!LO:TX:t=P:problem:mixed beam	!	!	!	!
8AA/L	8ee\L 8a\ 8g\	.	8ee\	szom
8e\ 8c#\ 8A\	8ee\ 8a\ 8g\	.	8ee\	z_la-
8e\ 8c#\ 8A\	8a\ 8g\	.	8a/	-szoń-
8e\J 8c#\ 8A\	8cc#/J 8a/ 8g/	.	8cc#\	-kom
=10	=10	=10	=10	=10
8D\L	8dd\L 8a\ 8f#\	.	8dd\	pro-
8d\ 8A\ 8F#\ 8D\	8dd\ 8a\ 8f#\	.	8dd\	-hu-
8d\ 8A\ 8F#\ 8D\	8dd\ 8a\ 8f#\	.	8dd\	-la-
8d\J 8A\ 8F#\ 8D\	8dd\J 8a\ 8f#\	.	8dd\	-ła.
==	==	==	==	==
*-	*-	*-	*-	*-
!!!system-decoration: <s1>{(s2,s3)}
!!!RDF**kern: > = above
!!!RDF**kern: < = below
!!!RDF**kern: | = vertical stroke
!!!ENC: Andrzej Kubiczek
!!!END: 2021-11-11
